!!!OTL: WAS IST DES DEUTSCHEN VATERLAND
!!!ARE: Europa, Mitteleuropa, Deutschland
!!!SCT: B0002A
!!!YEM: Copyright 1995, estate of Helmut Schaffrath.
**kern
*ICvox
*Ivox
*M4/4
*k[]
*C:
{4G
=1
4.G
8c
4.c
8B-
=2
8.B-
16A
4A
4r}
{4A
=3
4.D
8D
4.G
8F
=4
8.F
16E
4E
4r}
{4c
=5
4.B
8G
4.G
8B
=6
8.d
16c
4c
4r}
{4c
=7
4.B
8d
4.f
8B
=8
8.d
16c
4c
8r}
{8c
8B
8c
=9
2d
8r
8d
8c
8d
=10
2e
8r}
{8c
8B
8c
=11
4A
4d
4c
4B
=12
2c
4r}
==
!!!AGN: politisch, national, Vaterlands - Lied
!!!ONB: ESAC (Essen Associative Code) Database: BOEHME
!!!AMT: simple quadruple
!!!AIN: vox
!!!EED: Helmut Schaffrath
!!!EEV: 1.0
*-
